resources/images/split_parts_dark.svg

<svg width="40" height="40" viewBox="0 0 40 40" fill="none" xmlns="http://www.w3.org/2000/svg">
<path d="M24 19H29V20H24V19ZM31 19V20H35V19H31ZM10 20H15V19H10V20ZM4 20H8V19H4V20ZM19 29H20V24H19V29ZM19 35H20V31H19V35ZM20 17H19V19H17V20H19V22H20V20H22V19H20V17ZM20 10H19V15H20V10ZM20 4H19V8H20V4Z" fill="#FF7C3F"/>
<path d="M17 35H10.5C8.77674 34.9979 7.12467 34.3124 5.90614 33.0939C4.68762 31.8753 4.00212 30.2233 4 28.5V22H17V35ZM5 23V28.5C5.00185 29.9581 5.58191 31.356 6.61296 32.387C7.64401 33.4181 9.04188 33.9981 10.5 34H16V23H5ZM28.5 35H22V22H35V28.5C34.9979 30.2233 34.3124 31.8753 33.0939 33.0939C31.8753 34.3124 30.2233 34.9979 28.5 35ZM23 34H28.5C29.9581 33.9981 31.356 33.4181 32.387 32.387C33.4181 31.356 33.9981 29.9581 34 28.5V23H23V34ZM17 17H4V10.5C4.00212 8.77674 4.68762 7.12467 5.90614 5.90614C7.12467 4.68762 8.77674 4.00212 10.5 4H17V17ZM5 16H16V5H10.5C9.0418 5.00159 7.64377 5.58156 6.61267 6.61267C5.58156 7.64377 5.00159 9.0418 5 10.5V16ZM35 17H22V4H28.5C30.2233 4.00212 31.8753 4.68762 33.0939 5.90614C34.3124 7.12467 34.9979 8.77674 35 10.5V17ZM23 16H34V10.5C33.9984 9.0418 33.4184 7.64377 32.3873 6.61267C31.3562 5.58156 29.9582 5.00159 28.5 5H23V16Z" fill="#B6B6B6"/>
</svg>

<svg xmlns="http://www.w3.org/2000/svg" width="40" height="40" viewBox="0 0 40 40"><path d="M24,19h5v1H24Zm7,0v1h4V19ZM10,20h5V19H10ZM4,20H8V19H4Zm15,9h1V24H19Zm0,6h1V31H19Zm1-18H19v2H17v1h2v2h1V20h2V19H20Zm0-7H19v5h1Zm0-6H19V8h1Z" style="fill:#009688"/><path d="M17,35H10.5A6.508,6.508,0,0,1,4,28.5V22H17ZM5,23v5.5A5.507,5.507,0,0,0,10.5,34H16V23ZM28.5,35H22V22H35v6.5A6.508,6.508,0,0,1,28.5,35ZM23,34h5.5A5.507,5.507,0,0,0,34,28.5V23H23ZM17,17H4V10.5A6.508,6.508,0,0,1,10.5,4H17ZM5,16H16V5H10.5A5.506,5.506,0,0,0,5,10.5Zm30,1H22V4h6.5A6.508,6.508,0,0,1,35,10.5ZM23,16H34V10.5A5.506,5.506,0,0,0,28.5,5H23Z" style="fill:#b6b6b6"/></svg>
